assets/btn-add.svg

<svg width="40" height="40" viewBox="0 0 40 40" fill="none" xmlns="http://www.w3.org/2000/svg">
  <rect width="40" height="40" rx="10" fill="#9E78CF" />
  <path
    d="M28.25 20C28.25 20.1823 28.1776 20.3572 28.0486 20.4861C27.9197 20.6151 27.7448 20.6875 27.5625 20.6875H20.6875V27.5625C20.6875 27.7448 20.6151 27.9197 20.4861 28.0486C20.3572 28.1776 20.1823 28.25 20 28.25C19.8177 28.25 19.6428 28.1776 19.5139 28.0486C19.3849 27.9197 19.3125 27.7448 19.3125 27.5625V20.6875H12.4375C12.2552 20.6875 12.0803 20.6151 11.9514 20.4861C11.8224 20.3572 11.75 20.1823 11.75 20C11.75 19.8177 11.8224 19.6428 11.9514 19.5139C12.0803 19.3849 12.2552 19.3125 12.4375 19.3125H19.3125V12.4375C19.3125 12.2552 19.3849 12.0803 19.5139 11.9514C19.6428 11.8224 19.8177 11.75 20 11.75C20.1823 11.75 20.3572 11.8224 20.4861 11.9514C20.6151 12.0803 20.6875 12.2552 20.6875 12.4375V19.3125H27.5625C27.7448 19.3125 27.9197 19.3849 28.0486 19.5139C28.1776 19.6428 28.25 19.8177 28.25 20Z"
    fill="white" />
</svg>

<svg width="40" height="40" fill="none" xmlns="http://www.w3.org/2000/svg">
  <rect width="40" height="40" rx="10" fill="#9E78CF" />
  <path
    d="M28.25 20a.687.687 0 0 1-.688.688h-6.875v6.875a.687.687 0 1 1-1.375 0v-6.875h-6.875a.687.687 0 1 1 0-1.375h6.876v-6.875a.687.687 0 1 1 1.375 0v6.874h6.875a.687.687 0 0 1 .687.688Z"
    fill="#fff" />
</svg>
